X:1
T:Egan's (The Kerry)
L:1/8
Q:1/4=110
M:2/4
K:D
"D""^Egan's (The Kerry)" fA BA |"D" fA BA |"G" d2 e>f |"A" ed BA |
"D" fA BA |"D" fA BA |"G" d2"A" e>f |"D" ed d2 ::
"D" fa f>e |"Em" ed BA |"G" d2 e>f |"A" ed BA |
"D" fa f>e |"Em" ed BA |"G" d2"Em" e>f |"A" ed"D" d2 ::
"D" fA BA |"D" fA BA |"G" d2 e>f |"A" ed BA |
"D" fA BA |"D" fA BA |"G" d2"A" e>f |"D" ed d2 ::
"D" fa f>e |"Em" ed BA |"G" d2 e>f |"A" ed BA |
"D" fa f>e |"Em" ed BA |"G" d2"Em" e>f |"A" ed"D" d2 ::
